X:205
T: SWAR EINER DEMS IN HERZEN GING
N: B0690
O: Europa, Mitteleuropa, Deutschland
R: Scherz - Lied
M: 2/4
L: 1/16
K: D
A2 | d3AA2A2 | B3AA2zA | B3AA2z
D | D3EF3G | F3EE2zG | F3EE2z
A | B2A2G2F2 | E4D2z
D | D3FF3A | A3dd2z
A | B2A2G2F2 | E4D2

@@@ Tune index: 2423
